X:1
T:Creve Coeur, CMD
T:Creve Coeur, CMD
T:Wilson Lee Remsberg, 19th Century
T:Public Domain Courtesy of the Cyber Hymnal™
C:Wilson Lee Remsberg, 19th Century
Z:Public Domain
Z:Courtesy of the Cyber Hymnal™
%%score ( 1 2 ) ( 3 4 )
L:1/8
Q:1/4=105
M:4/4
K:C
V:1 treble 
V:2 treble 
V:3 bass 
V:4 bass 
V:1
 [Ec]2 [Ec]>[Ec] ([Ec][GB]) ([FA][EG]) | [EG]3 [DF] [CE]2 [CG]2 | [B,F]3 [B,F] [CE]2 [CG]2 | %3
 [B,D]6 [FB]2 | [Ec]3 [Ec] [Gd]3 [Gd] | [Ge]3 [Ge] [Af]2 [Fd]2 | [Ec]3 [Ec] [DB]2 [Fd]2 | %7
 [Ec]6 G2 | [Fd]3 [Fc] (BA) [FG]2 | [Gc]3 [Gd] [Ge]2 G2 | [FA]3 [FA] [Af]2 [Fd]2 | %11
 ([Ec]4 [DB]2) G2 | [Ge]3 [Fd] [Ec]3 [GB] | [FA]2 (de) [Af]3 [Af] | [Ge]3 [Ge] [Fd]3 [Fd] | %15
 [Ec]8 |] %16
V:2
 x8 | x8 | x8 | x8 | x8 | x8 | x8 | x6 G2 | x4 F2 x2 | x6 G2 | x8 | x6 G2 | x8 | x2 A2 x4 | x8 | %15
 x8 |] %16
V:3
 [C,G,]2 [C,G,]>[C,G,] [C,G,]2 [C,C]2 | [C,C]3 [C,G,] [C,G,]2 [E,G,]2 | %2
 [D,G,]3 [D,G,] [C,G,]2 [E,G,]2 | G,6 [G,D]2 | [A,C]3 [A,C] [B,D]3 [B,D] | %5
 [CE]3 [CE] [F,C]2 [F,A,]2 | G,3 G, G,2 [G,,G,]2 | [C,G,]6 G,2 | [G,B,]3 [G,B,] [G,D]2 D2 | %9
 [E,C]3 [D,B,] [C,C]2 [E,C]2 | [F,C]3 [F,C] [D,D]2 [F,A,]2 | G,6 [G,B,]2 | %12
 [C,C]3 [D,B,] [E,C]3 [E,C] | [F,C]2 ([F,D][E,^C]) [D,D]3 [D,D] | %14
 [G,C]3 [G,C] [G,,G,B,]3 [G,,G,B,] | [C,G,]8 |] %16
V:4
 x8 | x8 | x8 | G,6 x2 | x8 | x8 | G,3 G, G,2 x2 | x6 G,2 | x6 (G,F,) | x8 | x8 | G,6 x2 | x8 | %13
 x8 | x8 | x8 |] %16

